X:115
T:In Cawsand Bay - Binding
%%VWML:SBG-1-2-167-0
F:http://www.vwml.org/record/SBG/1/2/167
Z:Original Sibelius transcriptions by M. & S. Graebe
M:3/4
I:linebreak $
K:D
V:1 treble nm="P1"
V:1
 D | D D D | F D A/A/ | A A A | d A A | d A F | F E D |$ A A A | (A A/) z/ A/A/ | d d d | d A A | %11
 B B B | A F D | D F A |$ A F D | A A A | (A A/) z/ x/ F/ | G A/B/c/d/ | d A G | F D D | D2 x | %21
T:In Cawsand Bay - Burnard
F:http://www.vwml.org/record/SBG/1/2/169
Z:Original Sibelius transcriptions by M. & S. Graebe
M:3/4
I:linebreak $
K:C
V:1 treble nm="P1"
V:1
 C | C E G | A G A/B/ | c G E | C G A/B/ | c G F | E D C |$ G G G | G2 G | c c c | B G B | A F A | %12
 G E C | C E G |$ G E C | G G G | E2"^chorus" F/G/ | A B c | G F E | C D D | C2 x | %21
T:In Cawsand Bay - from Miss Browne
F:http://www.vwml.org/record/SBG/1/2/169
Z:Original Sibelius transcriptions by M. & S. Graebe
M:3/4
I:linebreak $
K:C
V:1 treble nm="P1"
V:1
 G, | C C C | E C3/2 D/ | G G G | c G3/2 G/ | c G E | E D C |$ D G3/2 ^F/ | G3/2 G/ | c c c | %10
 B G3/2 G/ | c c c | B G3/2 G/ | c G E |$ E D C | D G ^F | G3/2 E/ | F3/2 G/ A/ B/ | c G F | %19
 E F E | C2 x | %21

